svg/color/kxc.svg

<?xml version="1.0" encoding="UTF-8" ?>
<!DOCTYPE svg PUBLIC "-//W3C//DTD SVG 1.1//EN" "http://www.w3.org/Graphics/SVG/1.1/DTD/svg11.dtd">
<svg width="250pt" height="250pt" viewBox="0 0 250 250" version="1.1" xmlns="http://www.w3.org/2000/svg">
<g id="#ffffffff">
<path fill="#ffffff" opacity="1.00" d=" M 0.00 0.00 L 19.29 0.00 C 15.30 2.33 11.14 4.54 7.91 7.91 C 4.22 11.48 2.33 16.35 0.00 20.82 L 0.00 0.00 Z" />
<path fill="#ffffff" opacity="1.00" d=" M 33.07 0.00 L 121.17 0.00 C 117.59 1.80 113.81 3.26 110.55 5.63 C 104.79 10.00 101.15 16.93 100.46 24.09 C 100.19 31.30 103.08 38.67 108.39 43.61 C 115.07 50.15 125.67 52.58 134.34 48.74 C 147.02 44.35 154.08 28.51 148.46 16.23 C 145.54 7.97 137.52 3.53 130.07 0.00 L 219.09 0.00 C 213.14 2.94 206.62 5.93 203.13 11.92 C 199.20 17.63 198.68 24.94 199.89 31.59 C 202.88 41.69 212.31 50.05 223.03 50.56 C 229.80 50.91 236.58 48.11 241.47 43.47 C 245.36 39.74 247.40 34.64 250.00 30.04 L 250.00 218.10 C 246.87 211.57 242.96 204.91 236.31 201.44 C 228.62 197.15 218.51 197.02 210.98 201.75 C 203.27 206.23 198.28 215.04 198.45 223.96 C 198.58 236.81 209.94 248.80 222.98 248.66 C 230.33 249.17 237.66 245.99 242.63 240.63 C 245.84 237.33 247.80 233.11 250.00 229.12 L 250.00 250.00 L 27.23 250.00 C 32.40 247.71 38.20 246.38 42.47 242.46 C 47.54 237.77 51.02 231.02 50.69 224.00 C 51.54 210.02 37.93 197.31 24.08 198.68 C 16.73 199.29 9.59 203.16 5.46 209.33 C 3.25 212.62 1.80 216.34 0.00 219.85 L 0.00 30.91 C 2.89 36.66 5.75 42.90 11.25 46.63 C 19.82 52.86 32.30 53.11 40.87 46.74 C 52.34 39.12 55.07 21.81 47.07 10.76 C 43.79 5.62 37.95 3.26 33.07 0.00 M 68.69 51.10 C 61.24 53.57 54.66 59.14 52.18 66.75 C 49.05 74.56 50.84 83.70 55.75 90.37 C 60.11 96.25 67.22 99.71 74.38 100.61 C 83.31 100.59 92.50 96.09 97.13 88.28 C 100.43 83.01 101.04 76.49 100.22 70.45 C 98.76 62.88 93.62 56.01 86.62 52.70 C 81.12 49.91 74.60 50.06 68.69 51.10 M 168.27 50.97 C 159.50 53.52 152.11 60.86 150.45 69.95 C 150.23 75.14 149.56 80.78 152.20 85.51 C 156.33 93.96 165.43 100.33 175.03 99.67 C 188.04 99.85 199.50 87.88 199.49 75.00 C 199.51 65.35 193.17 56.11 184.32 52.36 C 179.33 50.08 173.58 49.91 168.27 50.97 M 121.28 100.01 C 112.59 101.55 104.72 107.71 101.78 116.11 C 97.72 126.98 102.32 140.64 112.60 146.28 C 120.31 150.79 130.43 150.62 138.02 145.93 C 146.92 140.70 151.30 129.37 149.18 119.41 C 146.77 107.08 133.67 97.82 121.28 100.01 M 171.27 148.90 C 166.97 149.83 162.79 151.47 159.18 154.02 C 154.15 157.63 151.00 163.43 149.71 169.40 C 148.55 176.62 150.85 184.13 155.18 189.93 C 159.07 194.86 165.24 197.36 171.28 198.42 C 185.01 200.05 199.21 188.12 198.77 174.02 C 199.66 159.68 185.18 147.14 171.27 148.90 M 72.28 149.62 C 59.39 151.21 48.90 163.99 50.64 177.01 C 51.81 183.95 55.60 190.65 61.53 194.59 C 69.23 200.00 80.11 200.29 88.12 195.36 C 93.79 192.48 97.17 186.66 99.37 180.93 C 99.94 176.65 99.88 172.28 99.45 167.99 C 96.47 156.30 84.31 147.87 72.28 149.62 M 122.30 198.62 C 116.52 199.26 111.06 201.91 106.65 205.64 C 100.21 213.43 96.90 225.17 102.50 234.35 C 108.50 247.79 127.64 252.18 139.08 243.15 C 143.90 239.10 148.75 233.70 148.69 227.02 C 148.72 222.15 149.38 216.88 146.82 212.48 C 142.45 203.50 132.31 197.52 122.30 198.62 Z" />
<path fill="#ffffff" opacity="1.00" d=" M 230.20 0.00 L 250.00 0.00 L 250.00 22.06 C 247.86 17.36 246.20 12.24 242.53 8.45 C 239.11 4.73 234.47 2.54 230.20 0.00 Z" />
<path fill="#ffffff" opacity="1.00" d=" M 0.00 226.98 C 2.27 232.36 4.39 238.13 8.95 242.05 C 13.39 246.59 19.86 247.68 25.51 250.00 L 0.00 250.00 L 0.00 226.98 Z" />
</g>
<g id="#2470bcff">
<path fill="#2470bc" opacity="1.00" d=" M 19.29 0.00 L 33.07 0.00 C 37.95 3.26 43.79 5.62 47.07 10.76 C 55.07 21.81 52.34 39.12 40.87 46.74 C 32.30 53.11 19.82 52.86 11.25 46.63 C 5.75 42.90 2.89 36.66 0.00 30.91 L 0.00 20.82 C 2.33 16.35 4.22 11.48 7.91 7.91 C 11.14 4.54 15.30 2.33 19.29 0.00 Z" />
<path fill="#2470bc" opacity="1.00" d=" M 121.17 0.00 L 130.07 0.00 C 137.52 3.53 145.54 7.97 148.46 16.23 C 154.08 28.51 147.02 44.35 134.34 48.74 C 125.67 52.58 115.07 50.15 108.39 43.61 C 103.08 38.67 100.19 31.30 100.46 24.09 C 101.15 16.93 104.79 10.00 110.55 5.63 C 113.81 3.26 117.59 1.80 121.17 0.00 Z" />
<path fill="#2470bc" opacity="1.00" d=" M 219.09 0.00 L 230.20 0.00 C 234.47 2.54 239.11 4.73 242.53 8.45 C 246.20 12.24 247.86 17.36 250.00 22.06 L 250.00 30.04 C 247.40 34.64 245.36 39.74 241.47 43.47 C 236.58 48.11 229.80 50.91 223.03 50.56 C 212.31 50.05 202.88 41.69 199.89 31.59 C 198.68 24.94 199.20 17.63 203.13 11.92 C 206.62 5.93 213.14 2.94 219.09 0.00 Z" />
<path fill="#2470bc" opacity="1.00" d=" M 68.69 51.10 C 74.60 50.06 81.12 49.91 86.62 52.70 C 93.62 56.01 98.76 62.88 100.22 70.45 C 101.04 76.49 100.43 83.01 97.13 88.28 C 92.50 96.09 83.31 100.59 74.38 100.61 C 67.22 99.71 60.11 96.25 55.75 90.37 C 50.84 83.70 49.05 74.56 52.18 66.75 C 54.66 59.14 61.24 53.57 68.69 51.10 Z" />
<path fill="#2470bc" opacity="1.00" d=" M 168.27 50.97 C 173.58 49.91 179.33 50.08 184.32 52.36 C 193.17 56.11 199.51 65.35 199.49 75.00 C 199.50 87.88 188.04 99.85 175.03 99.67 C 165.43 100.33 156.33 93.96 152.20 85.51 C 149.56 80.78 150.23 75.14 150.45 69.95 C 152.11 60.86 159.50 53.52 168.27 50.97 Z" />
<path fill="#2470bc" opacity="1.00" d=" M 121.28 100.01 C 133.67 97.82 146.77 107.08 149.18 119.41 C 151.30 129.37 146.92 140.70 138.02 145.93 C 130.43 150.62 120.31 150.79 112.60 146.28 C 102.32 140.64 97.72 126.98 101.78 116.11 C 104.72 107.71 112.59 101.55 121.28 100.01 Z" />
<path fill="#2470bc" opacity="1.00" d=" M 171.27 148.90 C 185.18 147.14 199.66 159.68 198.77 174.02 C 199.21 188.12 185.01 200.05 171.28 198.42 C 165.24 197.36 159.07 194.86 155.18 189.93 C 150.85 184.13 148.55 176.62 149.71 169.40 C 151.00 163.43 154.15 157.63 159.18 154.02 C 162.79 151.47 166.97 149.83 171.27 148.90 Z" />
<path fill="#2470bc" opacity="1.00" d=" M 72.28 149.62 C 84.31 147.87 96.47 156.30 99.45 167.99 C 99.88 172.28 99.94 176.65 99.37 180.93 C 97.17 186.66 93.79 192.48 88.12 195.36 C 80.11 200.29 69.23 200.00 61.53 194.59 C 55.60 190.65 51.81 183.95 50.64 177.01 C 48.90 163.99 59.39 151.21 72.28 149.62 Z" />
<path fill="#2470bc" opacity="1.00" d=" M 5.46 209.33 C 9.59 203.16 16.73 199.29 24.08 198.68 C 37.93 197.31 51.54 210.02 50.69 224.00 C 51.02 231.02 47.54 237.77 42.47 242.46 C 38.20 246.38 32.40 247.71 27.23 250.00 L 25.51 250.00 C 19.86 247.68 13.39 246.59 8.95 242.05 C 4.39 238.13 2.27 232.36 0.00 226.98 L 0.00 219.85 C 1.80 216.34 3.25 212.62 5.46 209.33 Z" />
<path fill="#2470bc" opacity="1.00" d=" M 122.30 198.62 C 132.31 197.52 142.45 203.50 146.82 212.48 C 149.38 216.88 148.72 222.15 148.69 227.02 C 148.75 233.70 143.90 239.10 139.08 243.15 C 127.64 252.18 108.50 247.79 102.50 234.35 C 96.90 225.17 100.21 213.43 106.65 205.64 C 111.06 201.91 116.52 199.26 122.30 198.62 Z" />
<path fill="#2470bc" opacity="1.00" d=" M 210.98 201.75 C 218.51 197.02 228.62 197.15 236.31 201.44 C 242.96 204.91 246.87 211.57 250.00 218.10 L 250.00 229.12 C 247.80 233.11 245.84 237.33 242.63 240.63 C 237.66 245.99 230.33 249.17 222.98 248.66 C 209.94 248.80 198.58 236.81 198.45 223.96 C 198.28 215.04 203.27 206.23 210.98 201.75 Z" />
</g>
</svg>

<?xml version="1.0" encoding="utf-8"?>
<!-- Generator: Adobe Illustrator 26.0.3, SVG Export Plug-In . SVG Version: 6.00 Build 0)  -->
<svg version="1.1" id="Layer_1" xmlns="http://www.w3.org/2000/svg" xmlns:xlink="http://www.w3.org/1999/xlink" x="0px" y="0px"
	 viewBox="0 0 250 250" style="enable-background:new 0 0 250 250;" xml:space="preserve">
<style type="text/css">
	.st0{fill:#FFFFFF;}
	.st1{fill:#2470BC;}
</style>
<g id="_x23_ffffffff">
	<path class="st0" d="M0,0h19.3c-4,2.3-8.2,4.5-11.4,7.9C4.2,11.5,2.3,16.4,0,20.8V0z"/>
	<path class="st0" d="M230.2,0H250v22.1c-2.1-4.7-3.8-9.8-7.5-13.6C239.1,4.7,234.5,2.5,230.2,0z"/>
	<path class="st0" d="M0,227c2.3,5.4,4.4,11.2,8.9,15.1c4.4,4.5,10.9,5.6,16.6,7.9H0V227z"/>
</g>
<g id="_x23_2470bcff">
	<path class="st1" d="M19.3,0h13.8c4.9,3.3,10.7,5.6,14,10.8c8,11,5.3,28.4-6.2,36c-8.6,6.4-21,6.1-29.6-0.1
		C5.8,42.9,2.9,36.7,0,30.9V20.8c2.3-4.5,4.2-9.3,7.9-12.9C11.1,4.5,15.3,2.3,19.3,0z"/>
	<path class="st1" d="M121.2,0h8.9c7.4,3.5,15.5,8,18.4,16.2c5.6,12.3-1.4,28.1-14.1,32.5c-8.7,3.8-19.3,1.4-25.9-5.1
		c-5.3-4.9-8.2-12.3-7.9-19.5c0.7-7.2,4.3-14.1,10.1-18.5C113.8,3.3,117.6,1.8,121.2,0z"/>
	<path class="st1" d="M219.1,0h11.1c4.3,2.5,8.9,4.7,12.3,8.4c3.7,3.8,5.3,8.9,7.5,13.6v8c-2.6,4.6-4.6,9.7-8.5,13.4
		c-4.9,4.6-11.7,7.4-18.4,7.1c-10.7-0.5-20.1-8.9-23.1-19c-1.2-6.6-0.7-14,3.2-19.7C206.6,5.9,213.1,2.9,219.1,0z"/>
	<path class="st1" d="M68.7,51.1c5.9-1,12.4-1.2,17.9,1.6c7,3.3,12.1,10.2,13.6,17.7c0.8,6,0.2,12.6-3.1,17.8
		c-4.6,7.8-13.8,12.3-22.8,12.3c-7.2-0.9-14.3-4.4-18.6-10.2c-4.9-6.7-6.7-15.8-3.6-23.6C54.7,59.1,61.2,53.6,68.7,51.1z"/>
	<path class="st1" d="M168.3,51c5.3-1.1,11.1-0.9,16.1,1.4c8.8,3.8,15.2,13,15.2,22.6c0,12.9-11.5,24.8-24.5,24.7
		c-9.6,0.7-18.7-5.7-22.8-14.2c-2.6-4.7-2-10.4-1.8-15.6C152.1,60.9,159.5,53.5,168.3,51z"/>
	<path class="st1" d="M121.3,100c12.4-2.2,25.5,7.1,27.9,19.4c2.1,10-2.3,21.3-11.2,26.5c-7.6,4.7-17.7,4.9-25.4,0.4
		c-10.3-5.6-14.9-19.3-10.8-30.2C104.7,107.7,112.6,101.6,121.3,100z"/>
	<path class="st1" d="M171.3,148.9c13.9-1.8,28.4,10.8,27.5,25.1c0.4,14.1-13.8,26-27.5,24.4c-6-1.1-12.2-3.6-16.1-8.5
		c-4.3-5.8-6.6-13.3-5.5-20.5c1.3-6,4.4-11.8,9.5-15.4C162.8,151.5,167,149.8,171.3,148.9z"/>
	<path class="st1" d="M72.3,149.6c12-1.8,24.2,6.7,27.2,18.4c0.4,4.3,0.5,8.7-0.1,12.9c-2.2,5.7-5.6,11.6-11.2,14.4
		c-8,4.9-18.9,4.6-26.6-0.8c-5.9-3.9-9.7-10.6-10.9-17.6C48.9,164,59.4,151.2,72.3,149.6z"/>
	<path class="st1" d="M5.5,209.3c4.1-6.2,11.3-10,18.6-10.7c13.9-1.4,27.5,11.3,26.6,25.3c0.3,7-3.1,13.8-8.2,18.5
		c-4.3,3.9-10.1,5.2-15.2,7.5h-1.7c-5.6-2.3-12.1-3.4-16.6-7.9c-4.6-3.9-6.7-9.7-8.9-15.1v-7.1C1.8,216.3,3.2,212.6,5.5,209.3z"/>
	<path class="st1" d="M122.3,198.6c10-1.1,20.1,4.9,24.5,13.9c2.6,4.4,1.9,9.7,1.9,14.5c0.1,6.7-4.8,12.1-9.6,16.1
		c-11.4,9-30.6,4.6-36.6-8.8c-5.6-9.2-2.3-20.9,4.2-28.7C111.1,201.9,116.5,199.3,122.3,198.6z"/>
	<path class="st1" d="M211,201.8c7.5-4.7,17.6-4.6,25.3-0.3c6.7,3.5,10.6,10.1,13.7,16.7v11c-2.2,4-4.2,8.2-7.4,11.5
		c-5,5.4-12.3,8.5-19.7,8c-13,0.1-24.4-11.9-24.5-24.7C198.3,215,203.3,206.2,211,201.8z"/>
</g>
</svg>
